dist/svg/domain2.svg

<!-- Generated by Trend Micro Style Portal -->
<svg version="1.1" xmlns="http://www.w3.org/2000/svg" width="16" height="16" viewBox="0 0 16 16">
  <title>domain2</title>
  <path fill="rgb(34,34,34)" d="M0 14v0c0 0.552 0.448 1 1 1h14c0.552 0 1-0.448 1-1v-12c0-0.552-0.448-1-1-1h-14c-0.552 0-1 0.448-1 1zM1 4h14v10h-14zM14.5 3v0c-0.276 0-0.5-0.224-0.5-0.5v0c0-0.276 0.224-0.5 0.5-0.5s0.5 0.224 0.5 0.5c0 0.276-0.224 0.5-0.5 0.5zM13 2.5c0 0.276-0.224 0.5-0.5 0.5s-0.5-0.224-0.5-0.5c0-0.276 0.224-0.5 0.5-0.5v0c0.276 0 0.5 0.224 0.5 0.5v0zM10.5 3v0c-0.276 0-0.5-0.224-0.5-0.5v0c0-0.276 0.224-0.5 0.5-0.5s0.5 0.224 0.5 0.5c0 0.276-0.224 0.5-0.5 0.5zM3 7h10v-1h-10zM3 9h10v-1h-10zM9 11h-6v-1h6z"></path>
</svg>

<svg width="16" height="16" viewBox="0 0 16 16" fill="rgb(34, 34, 34)" xmlns="http://www.w3.org/2000/svg"><title>domain2</title><path d="M0 14C0 14.552 0.448 15 1 15H15C15.552 15 16 14.552 16 14V2C16 1.448 15.552 1 15 1H1C0.448 1 0 1.448 0 2V14ZM1 4H15V14H1V4ZM14.5 3C14.224 3 14 2.776 14 2.5C14 2.224 14.224 2 14.5 2C14.776 2 15 2.224 15 2.5C15 2.776 14.776 3 14.5 3ZM13 2.5C13 2.776 12.776 3 12.5 3C12.224 3 12 2.776 12 2.5C12 2.224 12.224 2 12.5 2C12.776 2 13 2.224 13 2.5ZM10.5 3C10.224 3 10 2.776 10 2.5C10 2.224 10.224 2 10.5 2C10.776 2 11 2.224 11 2.5C11 2.776 10.776 3 10.5 3ZM3 7H13V6H3V7ZM3 9H13V8H3V9ZM9 11H3V10H9V11Z" fill="rgb(34, 34, 34)" fill-opacity="1.00"/></svg>
